X: 3901
T:Off She Goes. JMT061
M:6/8
L:1/8
S:J.Moore,Tyneside,1841.(44b)
R:Jig
O:England
A:Northumbria
Z:C.G.P
K:D
z|F2AG2B|ABAd3|F2AG2B|AFDE2D|F2AG2B|!ABAd3|f2dg2f|edcd2:|
|:e|fafd2f|egec2e|!fafd2f|edcd3|fafd2f|egec2e|f2dg2f|edcd2:|]
